X:2
T:The Home Ruler
M:4/4
L:1/8
R:hornpipe
Z:Devin McCabe
K:D
"D"D2FA DAFA | dfed "G"BcdB | "D"~A2AB AFDE | EFED BDAB| "D"D2FA DAFA | dfed "G"BcdB | "D"~A3B AFDF |1 E2D2 D2AF :|2 E2D2 D2 (3ABc |
|:"D"d2fA defg | "D"ad"G"bd "D"afed | "Em"efed BA (3Bcd | "D"f2ed "A7"BdAB |\
"D"d2fA defg | "D"ad"G"bd "D"afed | "Em"efed BAdB |1 "A7"AFEF "D"D2 (3ABc :|2 "A7"AFEF "D"D2AF |]

